_includes/icons/ios-jpg.svg

<svg fill="#666" height="50" viewBox="0 0 50 50" width="50" xmlns="http://www.w3.org/2000/svg"><path d="m7 2v46h36v-32.585937l-13.589844-13.414063zm2 2h19v13h13v29h-32zm21 1.390625 9.734375 9.609375h-9.734375zm2.097656 18.078125c-2.144531 0-4.246093 1.527344-4.289062 5.203125-.03125 1.738281.433594 3.238281 1.300781 4.078125.675781.675781 1.546875 1.003906 2.703125 1.003906.734375 0 1.664063-.175781 2.097656-.359375v-5.398437h-2.710937v1.605469h.898437v2.445312c-.074218.027344-.210937.046875-.390625.046875-.914062 0-1.859375-.875-1.859375-3.304687 0-2.640625 1.0625-3.554688 2.398438-3.554688.496094 0 .871094.078125 1.15625.226563l.34375-1.695313c-.316406-.152344-.882813-.296875-1.648438-.296875zm-8.597656.042969c-.75 0-1.496094.074219-2.050781.195312v9.960938h1.960937v-3.765625h.390625c.8125 0 1.832032-.300781 2.460938-.960938.523437-.570312.855469-1.335937.855469-2.429687 0-.855469-.269532-1.695313-.871094-2.21875-.660156-.617188-1.574219-.78125-2.746094-.78125zm-5.640625.046875v6.972656c0 1.304688-.476562 1.53125-1.046875 1.53125-.253906 0-.449219-.015625-.644531-.074219l-.167969 1.652344c.226563.085938.585938.144531.992188.144531 1.441406 0 2.851562-.433593 2.851562-3.34375v-6.882812zm6.03125 1.542969c.917969 0 1.277344.6875 1.277344 1.574218 0 .945313-.453125 1.652344-1.441406 1.652344-.121094 0-.222657-.003906-.316407-.03125v-3.121094c.121094-.046875.300782-.074218.480469-.074218z"/></svg>

<svg xmlns="http://www.w3.org/2000/svg" viewBox="0 0 50 50" width="50" height="50" fill="#666"><path d="M 7 2 L 7 48 L 43 48 L 43 15.414063 L 29.410156 2 Z M 9 4 L 28 4 L 28 17 L 41 17 L 41 46 L 9 46 Z M 30 5.390625 L 39.734375 15 L 30 15 Z M 32.097656 23.46875 C 29.953125 23.46875 27.851563 24.996094 27.808594 28.671875 C 27.777344 30.410156 28.242188 31.910156 29.109375 32.75 C 29.785156 33.425781 30.65625 33.753906 31.8125 33.753906 C 32.546875 33.753906 33.476563 33.578125 33.910156 33.394531 L 33.910156 27.996094 L 31.199219 27.996094 L 31.199219 29.601563 L 32.097656 29.601563 L 32.097656 32.046875 C 32.023438 32.074219 31.886719 32.09375 31.707031 32.09375 C 30.792969 32.09375 29.847656 31.21875 29.847656 28.789063 C 29.847656 26.148438 30.910156 25.234375 32.246094 25.234375 C 32.742188 25.234375 33.117188 25.3125 33.402344 25.460938 L 33.746094 23.765625 C 33.429688 23.613281 32.863281 23.46875 32.097656 23.46875 Z M 23.5 23.511719 C 22.75 23.511719 22.003906 23.585938 21.449219 23.707031 L 21.449219 33.667969 L 23.410156 33.667969 L 23.410156 29.902344 L 23.800781 29.902344 C 24.613281 29.902344 25.632813 29.601563 26.261719 28.941406 C 26.785156 28.371094 27.117188 27.605469 27.117188 26.511719 C 27.117188 25.65625 26.847656 24.816406 26.246094 24.292969 C 25.585938 23.675781 24.671875 23.511719 23.5 23.511719 Z M 17.859375 23.558594 L 17.859375 30.53125 C 17.859375 31.835938 17.382813 32.0625 16.8125 32.0625 C 16.558594 32.0625 16.363281 32.046875 16.167969 31.988281 L 16 33.640625 C 16.226563 33.726563 16.585938 33.785156 16.992188 33.785156 C 18.433594 33.785156 19.84375 33.351563 19.84375 30.441406 L 19.84375 23.558594 Z M 23.890625 25.101563 C 24.808594 25.101563 25.167969 25.789063 25.167969 26.675781 C 25.167969 27.621094 24.714844 28.328125 23.726563 28.328125 C 23.605469 28.328125 23.503906 28.324219 23.410156 28.296875 L 23.410156 25.175781 C 23.53125 25.128906 23.710938 25.101563 23.890625 25.101563 Z"/></svg>
